build/Karasa-Jaga/scalable/actions/document-import-symbolic.svg

<svg height="16" width="16" xmlns="http://www.w3.org/2000/svg"><g fill="#999"><path d="m2.6875 1v2.125l.90625-.9375c.010416-.0001302.020834-.0001302.03125 0 .014356-.014356.047061-.045679.0625-.0625v-.125h.15625c.037385-.032436.038874-.05743.09375-.09375.174256-.1153303.471952-.238865.75-.25.4672995-.018679.7781475.15479 1 .34375h2.78125 4.53125v6.8125 2.375 2.8125h-4.53125-2.8125c-.2470339.183508-.5687076.328815-.9375.3125-.3502441-.015494-.6172277-.149238-.84375-.3125h-.1875v-.15625c-.0150144-.014021-.0484679-.017218-.0625-.03125l-.9375-.9375v2.125h7 4.3125v-3.0625-3.875-7.0625h-4.3125zm0 4.46875v.21875h.21875zm0 4.875v.1875l.1875-.1875z"/><path d="m4.75 2.90625c-.08515.00341-.147906.054156-.25.15625l-.9375.96875c-.1848431.1848432-.1998696.3626306-.0625.5l1.96875 1.96875a.25373612.25373612 0 0 1 .03125.0625.25373612.25373612 0 0 1 .03125.09375.25373612.25373612 0 0 1 -.125.25.25373612.25373612 0 0 1 -.125.03125h-4.40625c-.2369351 0-.40625.1693149-.40625.40625v1.34375c0 .2369351.1693149.40625.40625.40625h4.375a.25373612.25373612 0 0 1 .0625 0 .25373612.25373612 0 0 1 .15625.125.25373612.25373612 0 0 1 .03125.09375.25373612.25373612 0 0 1 -.0625.21875l-1.9375 1.9375c-.1296061.129606-.1151768.353573.0625.53125l.9375.9375c.177677.177674.354868.176382.5.03125l4.75-4.625c.0664-.066403.10728-.1364666.125-.21875a.25373612.25373612 0 0 1 0-.03125c.000547-.00146.02629-.010674.03125-.03125.000307-.00781-.00002-.024475 0-.03125.00002-.00678.000207-.027447 0-.03125a.25373612.25373612 0 0 1 0-.03125c-.000257.0039951-.013093-.015693-.03125-.09375-.016479-.070851-.046466-.108968-.125-.1875l-4.75-4.65625c-.08068-.080682-.168707-.1282495-.25-.125z"/></g></svg>

<?xml version="1.0" encoding="UTF-8" standalone="no"?>
<!-- Created with Inkscape (http://www.inkscape.org/) -->

<svg
   xmlns:dc="http://purl.org/dc/elements/1.1/"
   xmlns:cc="http://creativecommons.org/ns#"
   xmlns:rdf="http://www.w3.org/1999/02/22-rdf-syntax-ns#"
   xmlns:svg="http://www.w3.org/2000/svg"
   xmlns="http://www.w3.org/2000/svg"
   xmlns:xlink="http://www.w3.org/1999/xlink"
   xmlns:sodipodi="http://sodipodi.sourceforge.net/DTD/sodipodi-0.dtd"
   xmlns:inkscape="http://www.inkscape.org/namespaces/inkscape"
   version="1.1"
   width="16"
   height="16"
   id="svg7384"
   inkscape:version="0.92.4 (unknown)"
   sodipodi:docname="document-import-symbolic.svg">
  <sodipodi:namedview
     pagecolor="#ffffff"
     bordercolor="#666666"
     borderopacity="1"
     objecttolerance="10"
     gridtolerance="10"
     guidetolerance="10"
     inkscape:pageopacity="0"
     inkscape:pageshadow="2"
     inkscape:window-width="1366"
     inkscape:window-height="714"
     id="namedview8"
     showgrid="true"
     inkscape:zoom="29.5"
     inkscape:cx="9.2169072"
     inkscape:cy="11.7248"
     inkscape:window-x="0"
     inkscape:window-y="28"
     inkscape:window-maximized="1"
     inkscape:current-layer="svg7384">
    <inkscape:grid
       type="xygrid"
       id="grid826" />
  </sodipodi:namedview>
  <title
     id="title9167">Gnome Symbolic Icon Theme</title>
  <defs
     id="defs11">
    <linearGradient
       id="linearGradient2867-449-88-871-390-598-476-591-434-148-57-177-641-289-620-227-114-444-680-744-4-1-5">
      <stop
         offset="0"
         style="stop-color:#737373;stop-opacity:1"
         id="stop5430-5-0-9" />
      <stop
         offset="0.26238"
         style="stop-color:#636363;stop-opacity:1"
         id="stop5432-2-0-0" />
      <stop
         offset="0.704952"
         style="stop-color:#4b4b4b;stop-opacity:1"
         id="stop5434-9-6-8" />
      <stop
         offset="1"
         style="stop-color:#3f3f3f;stop-opacity:1"
         id="stop5436-2-7-0" />
    </linearGradient>
    <radialGradient
       gradientTransform="matrix(0,1.5000006,1.5241254,0,40.131885,-23.077676)"
       gradientUnits="userSpaceOnUse"
       xlink:href="#linearGradient2867-449-88-871-390-598-476-591-434-148-57-177-641-289-620-227-114-444-680-744-4-1-5"
       id="radialGradient3896-0"
       fy="-19.005346"
       fx="16.202444"
       r="19.99999"
       cy="-19.005346"
       cx="16.202444" />
    <linearGradient
       id="linearGradient2867-449-88-871-390-598-476-591-434-148-57-177-641-289-620-227-114-444-680-744-4-1">
      <stop
         offset="0"
         style="stop-color:#737373;stop-opacity:1"
         id="stop5430-5-0" />
      <stop
         offset="0.26238"
         style="stop-color:#636363;stop-opacity:1"
         id="stop5432-2-0" />
      <stop
         offset="0.704952"
         style="stop-color:#4b4b4b;stop-opacity:1"
         id="stop5434-9-6" />
      <stop
         offset="1"
         style="stop-color:#3f3f3f;stop-opacity:1"
         id="stop5436-2-7" />
    </linearGradient>
  </defs>
  <metadata
     id="metadata90">
    <rdf:RDF>
      <cc:Work
         rdf:about="">
        <dc:format>image/svg+xml</dc:format>
        <dc:type
           rdf:resource="http://purl.org/dc/dcmitype/StillImage" />
        <dc:title>Gnome Symbolic Icon Theme</dc:title>
      </cc:Work>
    </rdf:RDF>
  </metadata>
  <path
     style="color:#bebebe;display:inline;overflow:visible;visibility:visible;fill:#999999;fill-opacity:1;fill-rule:nonzero;stroke:none;stroke-width:1;marker:none;enable-background:accumulate"
     d="M 2.6875,1 V 3.125 L 3.59375,2.1875 c 0.010416,-1.302e-4 0.020834,-1.302e-4 0.03125,0 0.014356,-0.014356 0.047061,-0.045679 0.0625,-0.0625 V 2 h 0.15625 c 0.037385,-0.032436 0.038874,-0.05743 0.09375,-0.09375 0.174256,-0.1153303 0.471952,-0.238865 0.75,-0.25 0.4672995,-0.018679 0.7781475,0.15479 1,0.34375 H 8.46875 13 V 8.8125 11.1875 14 H 8.46875 5.65625 C 5.4092161,14.183508 5.0875424,14.328815 4.71875,14.3125 4.3685059,14.297006 4.1015223,14.163262 3.875,14 H 3.6875 V 13.84375 C 3.6724856,13.829729 3.6390321,13.826532 3.625,13.8125 L 2.6875,12.875 V 15 h 7 H 14 V 11.9375 8.0625 1 H 9.6875 Z m 0,4.46875 V 5.6875 h 0.21875 z m 0,4.875 v 0.1875 l 0.1875,-0.1875 z"
     id="path3701-0-3-2-4-2-9-2-1"
     inkscape:connector-curvature="0"
     sodipodi:nodetypes="cccccccsccccccccccccccccccccccccccccccc" />
  <g
     transform="translate(-24.932404,-15.494844)"
     id="layer1-8" />
  <path
     style="color:#000000;fill:#999999;fill-opacity:1;fill-rule:nonzero;stroke:none;stroke-width:1;marker:none;visibility:visible;display:inline;overflow:visible;enable-background:accumulate"
     d="M 4.75,2.90625 C 4.66485,2.90966 4.602094,2.960406 4.5,3.0625 L 3.5625,4.03125 C 3.3776569,4.2160932 3.3626304,4.3938806 3.5,4.53125 L 5.46875,6.5 A 0.25373612,0.25373612 0 0 1 5.5,6.5625 a 0.25373612,0.25373612 0 0 1 0.03125,0.09375 0.25373612,0.25373612 0 0 1 -0.125,0.25 0.25373612,0.25373612 0 0 1 -0.125,0.03125 l -4.40625,0 c -0.2369351,0 -0.40625,0.1693149 -0.40625,0.40625 l 0,1.34375 c 0,0.2369351 0.1693149,0.40625 0.40625,0.40625 l 4.375,0 a 0.25373612,0.25373612 0 0 1 0.0625,0 0.25373612,0.25373612 0 0 1 0.15625,0.125 A 0.25373612,0.25373612 0 0 1 5.5,9.3125 0.25373612,0.25373612 0 0 1 5.4375,9.53125 L 3.5,11.46875 C 3.3703939,11.598356 3.3848232,11.822323 3.5625,12 L 4.5,12.9375 c 0.177677,0.177674 0.354868,0.176382 0.5,0.03125 l 4.75,-4.625 C 9.8164,8.277347 9.85728,8.2072834 9.875,8.125 a 0.25373612,0.25373612 0 0 1 0,-0.03125 C 9.875547,8.09229 9.90129,8.083076 9.90625,8.0625 c 3.07e-4,-0.00781 -2e-5,-0.024475 0,-0.03125 2e-5,-0.00678 2.07e-4,-0.027447 0,-0.03125 a 0.25373612,0.25373612 0 0 1 0,-0.03125 C 9.905993,7.9727451 9.893157,7.953057 9.875,7.875 9.858521,7.804149 9.828534,7.766032 9.75,7.6875 L 5,3.03125 C 4.91932,2.950568 4.831293,2.9030005 4.75,2.90625 z"
     id="path3042"
     inkscape:connector-curvature="0" />
</svg>
